Newaita-dark/apps/48/tomahawk.svg

<svg height="48pt" viewBox="0 0 48 48" width="48pt" xmlns="http://www.w3.org/2000/svg" xmlns:xlink="http://www.w3.org/1999/xlink"><linearGradient id="a"><stop offset="0" stop-opacity=".313726"/><stop offset=".222222" stop-opacity=".27451"/><stop offset="1" stop-opacity="0"/></linearGradient><radialGradient id="b" cx="450.908936" cy="189.579361" gradientTransform="matrix(.00000026 -.117199 -.210958 -.00000015 66.784728 95.392994)" gradientUnits="userSpaceOnUse" r="21.166656" xlink:href="#a"/><radialGradient id="c" cx="450.908936" cy="189.579361" gradientTransform="matrix(-.00000026 .117199 .210958 .00000015 -19.155178 -11.291223)" gradientUnits="userSpaceOnUse" r="21.166656" xlink:href="#a"/><radialGradient id="d" cx="450.908936" cy="189.579361" gradientTransform="matrix(-.00000026 -.117199 .210958 -.00000015 -19.155178 95.392994)" gradientUnits="userSpaceOnUse" r="21.166656" xlink:href="#a"/><radialGradient id="e" cx="450.908936" cy="189.579361" gradientTransform="matrix(.00000026 .117199 -.210958 .00000015 66.784725 -11.291224)" gradientUnits="userSpaceOnUse" r="21.166656" xlink:href="#a"/><linearGradient id="f" gradientTransform="matrix(.0200401 0 0 .093759 18.698079 20.158175)" gradientUnits="userSpaceOnUse" x1="255.323059" x2="255.323044" y1="233.5" y2="254.666656"><stop offset="0" stop-opacity=".27451"/><stop offset="1" stop-opacity="0"/></linearGradient><linearGradient id="g" gradientUnits="userSpaceOnUse" x1="23.81477041568" x2="23.81477041568" y1="42.05088516646" y2="4.34416894677"><stop offset="0" stop-color="#eee"/><stop offset="1" stop-color="#e0e0e0"/></linearGradient><linearGradient id="h"><stop offset="0" stop-color="#ef5350"/><stop offset="1" stop-color="#e57373"/></linearGradient><linearGradient id="i" gradientUnits="userSpaceOnUse" x1="22.82250284352" x2="22.82250284352" xlink:href="#h" y1="42.0508995" y2="4.3441560001"/><linearGradient id="j" gradientUnits="userSpaceOnUse" x1="23.814786" x2="23.814786" xlink:href="#h" y1="42.0509015" y2="4.34415649995"/><linearGradient id="k" gradientUnits="userSpaceOnUse" x1="30.7607662501" x2="30.7607662501" xlink:href="#h" y1="42.0509015" y2="4.3441580001"/><path d="m27.289062 42.050781h3.96875v-1.984375h-3.96875zm0 0" fill="url(#b)"/><path d="m20.339844 42.050781h-3.96875v1.984375h3.96875zm0 0" fill="url(#c)"/><path d="m20.339844 42.050781h-3.96875v-1.984375h3.96875zm0 0" fill="url(#d)"/><path d="m27.289062 42.050781h3.96875v1.984375h-3.96875zm0 0" fill="url(#e)"/><path d="m20.339844 41.554688h6.949218v2.480468h-6.949218zm0 0" fill="url(#f)"/><path d="m23.816406 7.320312c8.765625 0 15.875 7.109376 15.875 15.878907 0 8.765625-7.109375 15.875-15.875 15.875-8.769531 0-15.878906-7.109375-15.878906-15.875 0-8.769531 7.109375-15.878907 15.878906-15.878907zm0 0" fill="url(#g)"/><path d="m23.816406 4.34375c-10.445312 0-18.855468 8.410156-18.855468 18.855469 0 10.441406 8.410156 18.851562 18.855468 18.851562 10.441406 0 18.851563-8.410156 18.851563-18.851562 0-10.445313-8.410157-18.855469-18.851563-18.855469zm0 2.976562c8.792969 0 15.875 7.082032 15.875 15.878907 0 8.792969-7.082031 15.875-15.875 15.875-8.796875 0-15.878906-7.082031-15.878906-15.875 0-8.796875 7.082031-15.878907 15.878906-15.878907zm0 0" fill="url(#i)"/><path d="m23.816406 42.050781c-10.445312 0-18.855468-8.410156-18.855468-18.851562 0-.0625 0-.125 0-.1875.101562 10.359375 8.472656 18.667969 18.855468 18.667969 10.382813 0 18.753906-8.308594 18.851563-18.667969v.1875c0 10.441406-8.410157 18.851562-18.851563 18.851562zm0 0" fill-opacity=".196078"/><path d="m23.816406 4.34375c-10.445312 0-18.855468 8.410156-18.855468 18.855469v.183593c.101562-10.359374 8.472656-18.667968 18.855468-18.667968 10.382813 0 18.753906 8.308594 18.851563 18.667968 0-.0625 0-.125 0-.183593 0-10.445313-8.410157-18.855469-18.851563-18.855469zm0 0" fill="#fff" fill-opacity=".392157"/><path d="m29.742188 22.453125c-.070313.589844-.40625 1.148437-1 1.480469l-8.929688 4.960937c-1.316406.730469-2.933594-.222656-2.933594-1.726562-.003906 1-.007812 1.472656-.011718.414062.003906 1.542969.007812 1.1875.011718.082031 0 1.503907 1.617188 2.457032 2.933594 1.726563l8.929688-4.960937c.761718-.425782 1.09375-1.222657 1-1.976563zm0 0" fill-opacity=".235294"/><path d="m18.867188 15.269531c-1.097657-.007812-1.988282.878907-1.988282 1.972657-.015625 11.972656-.011718 12.015624 0 9.925781 0 1.503906 1.617188 2.457031 2.933594 1.726562l8.929688-4.960937c1.355468-.753906 1.355468-2.703125 0-3.453125l-8.929688-4.964844c-.289062-.160156-.613281-.246094-.945312-.246094zm0 0" fill="url(#j)"/><path d="m30.097656 15.257812h1.324219c.730469 0 1.324219.445313 1.324219.992188v21.832031c0 .546875-.59375.992188-1.324219.992188h-1.324219c-.730468 0-1.320312-.445313-1.320312-.992188v-21.832031c0-.546875.589844-.992188 1.320312-.992188zm0 0" fill="url(#k)"/><path d="m23.816406 7.320312c-8.796875 0-15.878906 7.082032-15.878906 15.878907h.007812c.261719-8.566407 7.238282-15.382813 15.871094-15.382813 8.628906 0 15.605469 6.816406 15.867188 15.382813h.007812c0-8.796875-7.082031-15.878907-15.875-15.878907zm0 0" fill-opacity=".235294"/><g fill="#fff" fill-opacity=".392157"><path d="m7.9375 24.191406c0 .164063.003906.328125.007812.496094h.023438c.507812 8.328125 7.382812 14.882812 15.847656 14.882812 1.734375 0 3.398438-.277343 4.960938-.785156v-.496094c-1.5625.507813-3.226563.785157-4.960938.785157-8.464844 0-15.339844-6.554688-15.847656-14.882813zm31.722656 0c-.308594 5.0625-2.972656 9.472656-6.914062 12.148438v.496094c3.941406-2.675782 6.605468-7.085938 6.914062-12.148438h.023438c.003906-.167969.007812-.332031.007812-.496094zm0 0"/><path d="m18.867188 15.269531c-1.097657-.007812-1.988282.878907-1.988282 1.972657-.007812 6.230468-.011718 9.1875-.011718 10.335937 0-1.367187.003906-4.207031.011718-9.847656 0-1.097657.890625-1.984375 1.988282-1.976563.332031.003906.65625.089844.945312.25l8.929688 4.960938c.011718.007812.023437.011718.035156.019531v-.488281c-.011719-.003906-.023438-.011719-.035156-.015625l-8.929688-4.964844c-.289062-.160156-.613281-.246094-.945312-.246094zm0 0"/><path d="m30.097656 15.257812c-.730468 0-1.320312.445313-1.320312.992188v.496094c0-.546875.589844-.992188 1.320312-.992188h1.324219c.734375 0 1.324219.445313 1.324219.992188v-.496094c0-.546875-.589844-.992188-1.324219-.992188zm0 0"/></g><path d="m23.816406 4.203125c-10.523437 0-18.996094 8.472656-18.996094 18.996094 0 10.519531 8.472657 18.992187 18.996094 18.992187 10.519532 0 18.992188-8.472656 18.992188-18.992187 0-10.523438-8.472656-18.996094-18.992188-18.996094zm0 .28125c10.367188 0 18.710938 8.34375 18.710938 18.714844 0 10.367187-8.34375 18.710937-18.710938 18.710937-10.371094 0-18.714844-8.34375-18.714844-18.710937 0-10.371094 8.34375-18.714844 18.714844-18.714844zm0 2.695313c-8.871094 0-16.019531 7.148437-16.019531 16.019531 0 8.871093 7.148437 16.015625 16.019531 16.015625 1.757813 0 3.449219-.28125 5.03125-.800782l.125-.042968-.035156-.128906c-.011719-.050782-.019531-.105469-.019531-.160157v-14.414062l-.210938.125c-.011719.003906-.023437.011719-.03125.015625l-8.929687 4.960937c-1.230469.683594-2.726563-.199219-2.726563-1.601562h-.007812c-.003907-1.3125 0-4.121094.007812-9.925781 0-1.019532.828125-1.839844 1.847657-1.832032.304687 0 .609374.082032.878906.230469l8.929687 4.960937c.007813.003907.019531.011719.03125.019532l.210938.121094v-4.492188c0-.222656.117187-.429688.328125-.589844.210937-.15625.515625-.261718.851562-.261718h1.324219c.339844 0 .640625.105468.851563.261718.210937.160156.332031.367188.332031.589844v20.355469l.21875-.148438c4.234375-2.875 7.007812-7.734375 7.007812-13.257812 0-8.871094-7.144531-16.019531-16.015625-16.019531zm0 .28125c8.71875 0 15.734375 7.015624 15.734375 15.738281 0 5.332031-2.628906 10.027343-6.664062 12.871093v-19.820312c0-.324219-.175781-.613281-.445313-.8125-.265625-.199219-.625-.320312-1.019531-.320312h-1.324219c-.394531 0-.753906.121093-1.019531.320312s-.441406.488281-.441406.8125v4.007812l-8.753907-4.863281c-.3125-.171875-.660156-.265625-1.015624-.265625-1.171876-.007812-2.128907.941406-2.128907 2.113282-.007812 5.988281-.011719 8.992187-.011719 10.238281 0 .308593.003907.511719.003907.621093v.105469c0 .003907-.003907-.007812 0 .023438.003906.007812.15625.117187.15625.117187s.121093-.113281.125-.117187c0-.015625 0-.015625 0-.015625 0-.003906 0-.007813 0-.007813.542969.953125 1.800781 1.402344 2.867187.808594l8.757813-4.863281v13.929687c0 .035157 0 .066407.003906.101563-1.519531.484375-3.140625.75-4.824219.75-8.722656 0-15.738281-7.015625-15.738281-15.734375 0-8.722657 7.015625-15.738281 15.738281-15.738281zm0 0" fill="#212121"/></svg>

<?xml version="1.0" encoding="UTF-8"?>
<svg xmlns="http://www.w3.org/2000/svg" xmlns:xlink="http://www.w3.org/1999/xlink" width="48pt" height="48pt" viewBox="0 0 48 48" version="1.1">
<defs>
<radialGradient id="radial0" gradientUnits="userSpaceOnUse" cx="450.908936" cy="189.579361" fx="450.908936" fy="189.579361" r="21.166656" gradientTransform="matrix(0.000000261256,-0.117199,-0.210958,-0.000000152308,66.784728,95.392994)">
<stop offset="0" style="stop-color:rgb(0%,0%,0%);stop-opacity:0.313726;"/>
<stop offset="0.222222" style="stop-color:rgb(0%,0%,0%);stop-opacity:0.27451;"/>
<stop offset="1" style="stop-color:rgb(0%,0%,0%);stop-opacity:0;"/>
</radialGradient>
<radialGradient id="radial1" gradientUnits="userSpaceOnUse" cx="450.908936" cy="189.579361" fx="450.908936" fy="189.579361" r="21.166656" gradientTransform="matrix(-0.000000261256,0.117199,0.210958,0.000000152308,-19.155178,-11.291223)">
<stop offset="0" style="stop-color:rgb(0%,0%,0%);stop-opacity:0.313726;"/>
<stop offset="0.222222" style="stop-color:rgb(0%,0%,0%);stop-opacity:0.27451;"/>
<stop offset="1" style="stop-color:rgb(0%,0%,0%);stop-opacity:0;"/>
</radialGradient>
<radialGradient id="radial2" gradientUnits="userSpaceOnUse" cx="450.908936" cy="189.579361" fx="450.908936" fy="189.579361" r="21.166656" gradientTransform="matrix(-0.000000261256,-0.117199,0.210958,-0.000000152308,-19.155178,95.392994)">
<stop offset="0" style="stop-color:rgb(0%,0%,0%);stop-opacity:0.313726;"/>
<stop offset="0.222222" style="stop-color:rgb(0%,0%,0%);stop-opacity:0.27451;"/>
<stop offset="1" style="stop-color:rgb(0%,0%,0%);stop-opacity:0;"/>
</radialGradient>
<radialGradient id="radial3" gradientUnits="userSpaceOnUse" cx="450.908936" cy="189.579361" fx="450.908936" fy="189.579361" r="21.166656" gradientTransform="matrix(0.000000261256,0.117199,-0.210958,0.000000152308,66.784725,-11.291224)">
<stop offset="0" style="stop-color:rgb(0%,0%,0%);stop-opacity:0.313726;"/>
<stop offset="0.222222" style="stop-color:rgb(0%,0%,0%);stop-opacity:0.27451;"/>
<stop offset="1" style="stop-color:rgb(0%,0%,0%);stop-opacity:0;"/>
</radialGradient>
<linearGradient id="linear0" gradientUnits="userSpaceOnUse" x1="255.323059" y1="233.5" x2="255.323044" y2="254.666656" gradientTransform="matrix(0.0200401,0,0,0.093759,18.698079,20.158175)">
<stop offset="0" style="stop-color:rgb(0%,0%,0%);stop-opacity:0.27451;"/>
<stop offset="1" style="stop-color:rgb(0%,0%,0%);stop-opacity:0;"/>
</linearGradient>
<linearGradient id="linear1" gradientUnits="userSpaceOnUse" x1="253.999985" y1="271.203094" x2="253.999985" y2="-206.369751" gradientTransform="matrix(0.0789549,0,0,0.0789549,3.760227,20.638072)">
<stop offset="0" style="stop-color:rgb(93.333334%,93.333334%,93.333334%);stop-opacity:1;"/>
<stop offset="1" style="stop-color:rgb(87.843138%,87.843138%,87.843138%);stop-opacity:1;"/>
</linearGradient>
<linearGradient id="linear2" gradientUnits="userSpaceOnUse" x1="243.416641" y1="233.5" x2="243.416641" y2="-168.666656" gradientTransform="matrix(0.093759,0,0,0.093759,0.00000190753,20.158173)">
<stop offset="0" style="stop-color:rgb(93.725491%,32.549021%,31.37255%);stop-opacity:1;"/>
<stop offset="1" style="stop-color:rgb(89.803922%,45.09804%,45.09804%);stop-opacity:1;"/>
</linearGradient>
<linearGradient id="linear3" gradientUnits="userSpaceOnUse" x1="254" y1="233.5" x2="254" y2="-168.666672" gradientTransform="matrix(0.093759,0,0,0.093759,0,20.158175)">
<stop offset="0" style="stop-color:rgb(93.725491%,32.549021%,31.37255%);stop-opacity:1;"/>
<stop offset="1" style="stop-color:rgb(89.803922%,45.09804%,45.09804%);stop-opacity:1;"/>
</linearGradient>
<linearGradient id="linear4" gradientUnits="userSpaceOnUse" x1="328.083344" y1="233.5" x2="328.083344" y2="-168.666656" gradientTransform="matrix(0.093759,0,0,0.093759,0,20.158175)">
<stop offset="0" style="stop-color:rgb(93.725491%,32.549021%,31.37255%);stop-opacity:1;"/>
<stop offset="1" style="stop-color:rgb(89.803922%,45.09804%,45.09804%);stop-opacity:1;"/>
</linearGradient>
</defs>
<g id="surface1">
<path style=" stroke:none;fill-rule:nonzero;fill:url(#radial0);" d="M 27.289062 42.050781 L 31.257812 42.050781 L 31.257812 40.066406 L 27.289062 40.066406 Z M 27.289062 42.050781 "/>
<path style=" stroke:none;fill-rule:nonzero;fill:url(#radial1);" d="M 20.339844 42.050781 L 16.371094 42.050781 L 16.371094 44.035156 L 20.339844 44.035156 Z M 20.339844 42.050781 "/>
<path style=" stroke:none;fill-rule:nonzero;fill:url(#radial2);" d="M 20.339844 42.050781 L 16.371094 42.050781 L 16.371094 40.066406 L 20.339844 40.066406 Z M 20.339844 42.050781 "/>
<path style=" stroke:none;fill-rule:nonzero;fill:url(#radial3);" d="M 27.289062 42.050781 L 31.257812 42.050781 L 31.257812 44.035156 L 27.289062 44.035156 Z M 27.289062 42.050781 "/>
<path style=" stroke:none;fill-rule:nonzero;fill:url(#linear0);" d="M 20.339844 41.554688 L 27.289062 41.554688 L 27.289062 44.035156 L 20.339844 44.035156 Z M 20.339844 41.554688 "/>
<path style=" stroke:none;fill-rule:nonzero;fill:url(#linear1);" d="M 23.816406 7.320312 C 32.582031 7.320312 39.691406 14.429688 39.691406 23.199219 C 39.691406 31.964844 32.582031 39.074219 23.816406 39.074219 C 15.046875 39.074219 7.9375 31.964844 7.9375 23.199219 C 7.9375 14.429688 15.046875 7.320312 23.816406 7.320312 Z M 23.816406 7.320312 "/>
<path style=" stroke:none;fill-rule:nonzero;fill:url(#linear2);" d="M 23.816406 4.34375 C 13.371094 4.34375 4.960938 12.753906 4.960938 23.199219 C 4.960938 33.640625 13.371094 42.050781 23.816406 42.050781 C 34.257812 42.050781 42.667969 33.640625 42.667969 23.199219 C 42.667969 12.753906 34.257812 4.34375 23.816406 4.34375 Z M 23.816406 7.320312 C 32.609375 7.320312 39.691406 14.402344 39.691406 23.199219 C 39.691406 31.992188 32.609375 39.074219 23.816406 39.074219 C 15.019531 39.074219 7.9375 31.992188 7.9375 23.199219 C 7.9375 14.402344 15.019531 7.320312 23.816406 7.320312 Z M 23.816406 7.320312 "/>
<path style=" stroke:none;fill-rule:nonzero;fill:rgb(0%,0%,0%);fill-opacity:0.196078;" d="M 23.816406 42.050781 C 13.371094 42.050781 4.960938 33.640625 4.960938 23.199219 C 4.960938 23.136719 4.960938 23.074219 4.960938 23.011719 C 5.0625 33.371094 13.433594 41.679688 23.816406 41.679688 C 34.199219 41.679688 42.570312 33.371094 42.667969 23.011719 C 42.667969 23.074219 42.667969 23.136719 42.667969 23.199219 C 42.667969 33.640625 34.257812 42.050781 23.816406 42.050781 Z M 23.816406 42.050781 "/>
<path style=" stroke:none;fill-rule:nonzero;fill:rgb(100%,100%,100%);fill-opacity:0.392157;" d="M 23.816406 4.34375 C 13.371094 4.34375 4.960938 12.753906 4.960938 23.199219 C 4.960938 23.257812 4.960938 23.320312 4.960938 23.382812 C 5.0625 13.023438 13.433594 4.714844 23.816406 4.714844 C 34.199219 4.714844 42.570312 13.023438 42.667969 23.382812 C 42.667969 23.320312 42.667969 23.257812 42.667969 23.199219 C 42.667969 12.753906 34.257812 4.34375 23.816406 4.34375 Z M 23.816406 4.34375 "/>
<path style=" stroke:none;fill-rule:nonzero;fill:rgb(0%,0%,0%);fill-opacity:0.235294;" d="M 29.742188 22.453125 C 29.671875 23.042969 29.335938 23.601562 28.742188 23.933594 L 19.8125 28.894531 C 18.496094 29.625 16.878906 28.671875 16.878906 27.167969 C 16.875 28.167969 16.871094 28.640625 16.867188 27.582031 C 16.871094 29.125 16.875 28.769531 16.878906 27.664062 C 16.878906 29.167969 18.496094 30.121094 19.8125 29.390625 L 28.742188 24.429688 C 29.503906 24.003906 29.835938 23.207031 29.742188 22.453125 Z M 29.742188 22.453125 "/>
<path style=" stroke:none;fill-rule:nonzero;fill:url(#linear3);" d="M 18.867188 15.269531 C 17.769531 15.261719 16.878906 16.148438 16.878906 17.242188 C 16.863281 29.214844 16.867188 29.257812 16.878906 27.167969 C 16.878906 28.671875 18.496094 29.625 19.8125 28.894531 L 28.742188 23.933594 C 30.097656 23.179688 30.097656 21.230469 28.742188 20.480469 L 19.8125 15.515625 C 19.523438 15.355469 19.199219 15.269531 18.867188 15.269531 Z M 18.867188 15.269531 "/>
<path style=" stroke:none;fill-rule:nonzero;fill:url(#linear4);" d="M 30.097656 15.257812 L 31.421875 15.257812 C 32.152344 15.257812 32.746094 15.703125 32.746094 16.25 L 32.746094 38.082031 C 32.746094 38.628906 32.152344 39.074219 31.421875 39.074219 L 30.097656 39.074219 C 29.367188 39.074219 28.777344 38.628906 28.777344 38.082031 L 28.777344 16.25 C 28.777344 15.703125 29.367188 15.257812 30.097656 15.257812 Z M 30.097656 15.257812 "/>
<path style=" stroke:none;fill-rule:nonzero;fill:rgb(0%,0%,0%);fill-opacity:0.235294;" d="M 23.816406 7.320312 C 15.019531 7.320312 7.9375 14.402344 7.9375 23.199219 L 7.945312 23.199219 C 8.207031 14.632812 15.183594 7.816406 23.816406 7.816406 C 32.445312 7.816406 39.421875 14.632812 39.683594 23.199219 L 39.691406 23.199219 C 39.691406 14.402344 32.609375 7.320312 23.816406 7.320312 Z M 23.816406 7.320312 "/>
<path style=" stroke:none;fill-rule:nonzero;fill:rgb(100%,100%,100%);fill-opacity:0.392157;" d="M 7.9375 24.191406 C 7.9375 24.355469 7.941406 24.519531 7.945312 24.6875 L 7.96875 24.6875 C 8.476562 33.015625 15.351562 39.570312 23.816406 39.570312 C 25.550781 39.570312 27.214844 39.292969 28.777344 38.785156 L 28.777344 38.289062 C 27.214844 38.796875 25.550781 39.074219 23.816406 39.074219 C 15.351562 39.074219 8.476562 32.519531 7.96875 24.191406 Z M 39.660156 24.191406 C 39.351562 29.253906 36.6875 33.664062 32.746094 36.339844 L 32.746094 36.835938 C 36.6875 34.160156 39.351562 29.75 39.660156 24.6875 L 39.683594 24.6875 C 39.6875 24.519531 39.691406 24.355469 39.691406 24.191406 Z M 39.660156 24.191406 "/>
<path style=" stroke:none;fill-rule:nonzero;fill:rgb(100%,100%,100%);fill-opacity:0.392157;" d="M 18.867188 15.269531 C 17.769531 15.261719 16.878906 16.148438 16.878906 17.242188 C 16.871094 23.472656 16.867188 26.429688 16.867188 27.578125 C 16.867188 26.210938 16.871094 23.371094 16.878906 17.730469 C 16.878906 16.632812 17.769531 15.746094 18.867188 15.753906 C 19.199219 15.757812 19.523438 15.84375 19.8125 16.003906 L 28.742188 20.964844 C 28.753906 20.972656 28.765625 20.976562 28.777344 20.984375 L 28.777344 20.496094 C 28.765625 20.492188 28.753906 20.484375 28.742188 20.480469 L 19.8125 15.515625 C 19.523438 15.355469 19.199219 15.269531 18.867188 15.269531 Z M 18.867188 15.269531 "/>
<path style=" stroke:none;fill-rule:nonzero;fill:rgb(100%,100%,100%);fill-opacity:0.392157;" d="M 30.097656 15.257812 C 29.367188 15.257812 28.777344 15.703125 28.777344 16.25 L 28.777344 16.746094 C 28.777344 16.199219 29.367188 15.753906 30.097656 15.753906 L 31.421875 15.753906 C 32.15625 15.753906 32.746094 16.199219 32.746094 16.746094 L 32.746094 16.25 C 32.746094 15.703125 32.15625 15.257812 31.421875 15.257812 Z M 30.097656 15.257812 "/>
<path style=" stroke:none;fill-rule:nonzero;fill:rgb(12.941177%,12.941177%,12.941177%);fill-opacity:1;" d="M 23.816406 4.203125 C 13.292969 4.203125 4.820312 12.675781 4.820312 23.199219 C 4.820312 33.71875 13.292969 42.191406 23.816406 42.191406 C 34.335938 42.191406 42.808594 33.71875 42.808594 23.199219 C 42.808594 12.675781 34.335938 4.203125 23.816406 4.203125 Z M 23.816406 4.484375 C 34.183594 4.484375 42.527344 12.828125 42.527344 23.199219 C 42.527344 33.566406 34.183594 41.910156 23.816406 41.910156 C 13.445312 41.910156 5.101562 33.566406 5.101562 23.199219 C 5.101562 12.828125 13.445312 4.484375 23.816406 4.484375 Z M 23.816406 7.179688 C 14.945312 7.179688 7.796875 14.328125 7.796875 23.199219 C 7.796875 32.070312 14.945312 39.214844 23.816406 39.214844 C 25.574219 39.214844 27.265625 38.933594 28.847656 38.414062 L 28.972656 38.371094 L 28.9375 38.242188 C 28.925781 38.191406 28.917969 38.136719 28.917969 38.082031 L 28.917969 23.667969 L 28.707031 23.792969 C 28.695312 23.796875 28.683594 23.804688 28.675781 23.808594 L 19.746094 28.769531 C 18.515625 29.453125 17.019531 28.570312 17.019531 27.167969 L 17.011719 27.167969 C 17.007812 25.855469 17.011719 23.046875 17.019531 17.242188 C 17.019531 16.222656 17.847656 15.402344 18.867188 15.410156 C 19.171875 15.410156 19.476562 15.492188 19.746094 15.640625 L 28.675781 20.601562 C 28.683594 20.605469 28.695312 20.613281 28.707031 20.621094 L 28.917969 20.742188 L 28.917969 16.25 C 28.917969 16.027344 29.035156 15.820312 29.246094 15.660156 C 29.457031 15.503906 29.761719 15.398438 30.097656 15.398438 L 31.421875 15.398438 C 31.761719 15.398438 32.0625 15.503906 32.273438 15.660156 C 32.484375 15.820312 32.605469 16.027344 32.605469 16.25 L 32.605469 36.605469 L 32.824219 36.457031 C 37.058594 33.582031 39.832031 28.722656 39.832031 23.199219 C 39.832031 14.328125 32.6875 7.179688 23.816406 7.179688 Z M 23.816406 7.460938 C 32.535156 7.460938 39.550781 14.476562 39.550781 23.199219 C 39.550781 28.53125 36.921875 33.226562 32.886719 36.070312 L 32.886719 16.25 C 32.886719 15.925781 32.710938 15.636719 32.441406 15.4375 C 32.175781 15.238281 31.816406 15.117188 31.421875 15.117188 L 30.097656 15.117188 C 29.703125 15.117188 29.34375 15.238281 29.078125 15.4375 C 28.8125 15.636719 28.636719 15.925781 28.636719 16.25 L 28.636719 20.257812 L 19.882812 15.394531 C 19.570312 15.222656 19.222656 15.128906 18.867188 15.128906 C 17.695312 15.121094 16.738281 16.070312 16.738281 17.242188 C 16.730469 23.230469 16.726562 26.234375 16.726562 27.480469 C 16.726562 27.789062 16.730469 27.992188 16.730469 28.101562 C 16.730469 28.160156 16.730469 28.191406 16.730469 28.207031 C 16.730469 28.210938 16.726562 28.199219 16.730469 28.230469 C 16.734375 28.238281 16.886719 28.347656 16.886719 28.347656 C 16.886719 28.347656 17.007812 28.234375 17.011719 28.230469 C 17.011719 28.214844 17.011719 28.214844 17.011719 28.214844 C 17.011719 28.210938 17.011719 28.207031 17.011719 28.207031 C 17.554688 29.160156 18.8125 29.609375 19.878906 29.015625 L 28.636719 24.152344 L 28.636719 38.082031 C 28.636719 38.117188 28.636719 38.148438 28.640625 38.183594 C 27.121094 38.667969 25.5 38.933594 23.816406 38.933594 C 15.09375 38.933594 8.078125 31.917969 8.078125 23.199219 C 8.078125 14.476562 15.09375 7.460938 23.816406 7.460938 Z M 23.816406 7.460938 "/>
</g>
</svg>
